X: 21
T: Morrison's
Z: Sean Perry
S: https://thesession.org/tunes/71#setting50876
R: jig
M: 6/8
L: 1/8
K: Edor
|:~E3~B3|~E3AFD|~E3B2c|dcB AFD|
~E3~B3|~E3AFD|G2G FGA|1BAG FED:|2BAG FGA||
|:Bee fee|aee fed|Bee fee|fag fed|
Bee fee|faf def|gfe d2A|1BAG FGA:|2BAG FED||

